X:1
T:Im Volkston
T:Im Volkston
T:Eugen Hildach (1849–1924) Op. 13, No. 2
T:Anna Hildach (1852–1935)
T:public domain - Mutopia-2006/12/21-886
T:public domain - Mutopia-2006/12/21-886
C:Eugen Hildach (1849–1924)
C:Op. 13, No. 2
Z:Anna Hildach (1852–1935)
Z:public domain - Mutopia-2006/12/21-886
%%score 1 { ( 2 3 5 ) | ( 4 6 7 ) }
L:1/8
Q:1/4=90
M:3/4
K:Db
V:1 treble nm="Voice"
V:2 treble nm="Piano"
V:3 treble 
V:5 treble 
V:4 bass 
V:6 bass 
V:7 bass 
V:1
"^Sehr langsam." z6 | z6 | z6 | z2 z2!pp! A2 | f2 e3 d | g2 B3 B | e2 d2 c2 | f4 z F | d2 c2 B2 | %9
w: |||Was|leuch tet ihr|Ster ne so|hell in der|Nacht? mein|Schatz der ist|
 c2 G2 z G | F2 c3 d | B4 z2 | z2 z2!p! A2 | f2 e3 d | g2 B3 B | e2 d2 c2 | f4 F2 | d2 c2 B2 | %18
w: fer ne, hat|mein nicht mehr|Acht!|Ihr|Vög lein was|singt ihr am|Mor gen so|schön, den|Lieb sten nicht|
 c2 G2 G G | F2 c3 d | B2 z2 z2 | z2 z2"^rit." z A |"^a tempo" f2 e3 d | g2 B2 z B | e4 dc | %25
w: bringt mir eu er|hel les Ge|tön!|Ver|weht al le|Blü ten, er|fro ren der|
 f4!<(! d2 | a2!<)!!>(! g3 f!>)! | f2 B2 (cd) | d2 A2 z/ !fermata!ed/ | d4 z2 | z6 | !fermata!z6 |] %32
w: Klee, mag|Gott dich be|hü ten, Herz *|lieb ster, a *|de!|||
V:2
!pp! (A2 F2 A2 | B4 d2 | c2 e2 _f2 | f>a [da]4) |!pp! z2 (e2 d2 | g2 B4) | (e2 d2 c2 | f6) | %8
 (d2 c2 B2 | c4 G2) | F3 (=A f2) |!p! (F2 E2 D2 | G4 G)F |!p! (F2 A2 d2 | c4 B2 | A4) G2 | %16
 F2 A2 d2- | d4 d2 | G4 B2 | =A4 f2- | f2 (e2 d2 | g2 B2 c2) | z6 | z6 | z6 |!<(! z6 | %26
 A2!<)! z2!>(! z2!>)! | [=G,D]4 z2 | A,-D- [A,DA]2 __B!fermata!A |!pp! f2 e2 d2- | %30
"^smorzando"!>(! [Fd]2 z2 DA!>)! | !fermata!d6 |] %32
V:3
 z [A,D]2 [A,D]3 | z [B,EG]2!<(! [EG]2 [EGB] | z [EGA]2!>(! [GAc]2!<)! [GA]!>)! | z A- A4 | %4
 z [FA]2 [FA]2 [FA] | z [EG]2 [EG]2 [EG] | z [EG]2 [EG]2 [EGA] | z [FA]2 [FA]2 [FA] | %8
 z [DF]2 [DF]2 [DF] | z [B,E]2 [B,E]2 [B,E] | z [=A,E]2 E3 | z [F,B,D]2 [F,B,]2 [F,B,] | %12
 z [G,-B,] [G,C]4 | z [A,D]2 [DF]2 [FA] | z [EG]2 [EG]2 [EG] | z [CE]2 [CE]2 [CE] | %16
 z [A,D]2 F2 [DF] | z [DF]2 [DF]2 [DF] | z [B,E]2 [B,E]2 [B,E] | z [CEF]2 [E=A]3 | z [FB]2 [FB]3 | %21
 z [EG]2 [EG]3 | x6 | x6 | x6 | x6 | _CD B,D A,D | z6 | x4 !fermata!C2 | z [FA]2 [FA]2 [EG] | %30
 D2 x4 | z6 |] %32
V:4
!ped! (D,,2 A,,2 F,2)!ped-up! |!ped! (D,,2 G,2 B,2)!ped-up! |!ped! (D,,2 A,2 C2)!ped-up! | %3
"^riten."!ped! (D,,A,- [A,F]4)!ped-up! |!ped! D,,2 A,4!ped-up! |!ped! E,,2 A,4!ped-up! | %6
!ped! A,,2 B,2 A,2!ped-up! |!ped! D,,2 A,4!ped-up! |!ped! B,,,2 F,4!ped-up! | %9
!ped! E,,2 G,4!ped-up! |!ped! (F,,2 C,2 =A,2)!ped-up! |!ped! B,,,6!ped-up! | %12
 [E,,,E,,]2 [A,,,A,,]4 |!ped! (D,,2 A,,2 F,2)!ped-up! |!ped! E,,2 A,4!ped-up! | %15
!ped! A,,2 G,4!ped-up! |!ped! D,,2 A,,2 F,2!ped-up! |!ped! B,,,2 F,2 B,2!ped-up! | %18
!ped! E,,2 G,4!ped-up! |!ped! (F,,2 C,2 =A,2)!ped-up! |!ped! B,,2 [F,B,D]4!ped-up! | %21
!ped! E,,2 A,2"^rit." A,,2!ped-up! |"^a tempo."!p!!ped! (D,,A,, F,A,[I:staff -1] DF)!ped-up! | %23
!ped![I:staff +1] (E,,A,, G,B,[I:staff -1] DG)!ped-up! | %24
!ped![I:staff +1] (A,,G,- B,D C[I:staff -1]A)!ped-up! | %25
!ped![I:staff +1] (D,,A,, F,A,[I:staff -1] DG)!ped-up! |[I:staff +1] D,6 | E,,4 z2 | %28
 [A,,F,]4 !fermata![G,,G,]2 |!ped! D,,2"^serh langsam" A,2 [D,=A,]2!ped-up! |!ped! D,,A,, F,A, z2 | %31
 z6!ped-up! |] %32
V:5
 x6 | x6 | x6 | x6 | x6 | x6 | x6 | x6 | x6 | x6 | x6 | x6 | x6 | x6 | x6 | x6 | x6 | x6 | x6 | %19
 x6 | x5 [FB] | x6 | x6 | x6 | x6 | x6 | x6 | x6 | x6 | x6 | x6 | x6 |] %32
V:6
 x6 | x6 | x6 | x6 | x6 | x6 | x6 | x6 | x6 | x6 | x6 | x6 | x6 | x6 | x6 | x6 | x6 | x6 | x6 | %19
 x6 | x6 | x6 | x6 | x6 | A,,6 | x6 | F,,2 G,,2 A,,2 | x6 | x6 | x6 | x6 | x6 |] %32
V:7
 x6 | x6 | x6 | x6 | x6 | x6 | x6 | x6 | x6 | x6 | x6 | x6 | x6 | x6 | x6 | x6 | x6 | x6 | x6 | %19
 x6 | x6 | x6 | x6 | x6 | x4 [G,C]2 | x6 | x6 | x6 | x6 | x6 | x6 | x6 |] %32

